X:1
T:6 Gesänge, Op. 26
T:Lieber Schatz, sei wieder gut mir
T:2. Lieber Schatz, sei wieder gut mir
T:Robert Franz
T:6 Gesänge, Op. 26
T:Wilhelm Osterwald
T:OpenScore (CC0) 
T:OpenScore (CC0) 
C:Robert Franz
Z:Wilhelm Osterwald
Z:OpenScore (CC0)
Z:
%%score 1 { ( 2 3 ) | 4 }
L:1/8
Q:1/4=90
M:3/4
K:Bb
V:1 treble nm="Voice"
V:2 treble nm="Piano"
V:3 treble 
V:4 bass 
V:1
"^Con moto" z2 | z2 z2!mf! E3/2 F/ |!<(! G2!<)! B2 B3/2 A/ |!>(! G2!>)! D z G3/2 A/ | %4
w: |In dem|Dorn- busch blüht ein|Rös- lein, ist ein'|
w: |In the|thorn- bush blooms a|rose- bud, oh! 'tis|
!<(! B2!<)! d2 d3/2 c/ |!>(! B2-!>)! B z"^cresc." B3/2 c/ |!<(! d2!<)!!>(! f2!>)! f3/2 =e/ | %7
w: Lust, es an- zu-|seh'n! * Wollt' es|pflü- cken, mich zu|
w: just the rose to|don! * I would|pluck it, long to|
!>(! d2!>)! A z!p! d3/2 c/ | B2 A2 G3/2 ^F/ |!>(! G2-!>)! G z z2 | z2 z2!mf! E3/2!<(! F/ | %11
w: schmü- cken, doch der|Dorn lässt's nicht ge-|scheh'n. *|Sang ein|
w: wreath it, can- not|for the thorns there-|on. *|Sings a|
 G2!<)! B2 B3/2 A/ |!>(! G2!>)! D z!<(! G3/2 A/!<)! | B2 d2 d3/2 c/ | %14
w: Vög- lein in den|Lüf- ten, klang der|Sang süss in's Ge-|
w: bird- ie far a-|bove me, sweet its|song to me is|
!>(! B2-!>)! B z"^cresc." B3/2 c/ |!<(! d2!<)!!>(! f2!>)! f3/2 =e/ |!>(! d2!>)! A z!p! d3/2 c/ | %17
w: müth: * "Willst du|bre- chen, lass dich|ste- chen, oh- ne|
w: borne: * "Wouldst be|pick- ing, heed not|prick- ing, rose- bud|
 B2 A2 G3/2 ^F/ |!>(! G2-!>)! G z z2 | z2 z2!mf! E3/2 F/ |!<(! G2!<)! B2 B3/2 A/ | %21
w: Dorn kein Rös- lein|blüht". *|Lie- ber|Schatz, sei wie- der|
w: al- ways has a|thorn". *|Dear- est|friend, look kind- ly|
!>(! G2!>)! D2 G3/2 A/ |!<(! B2!<)! d2 c3/2 c/ |!>(! B2-!>)! B z"^cresc." d3/2 f/ | %24
w: gut mir, lie- ber|Schatz, leg' ab dein'|Zorn: * im- mer|
w: on me, dear- est|friend, lay by thy|scorn: * cease thy|
!>(! =e2!>)! d z ^c3/2 e/ |!>(! d2!>)! =c z!p! B A |!>(! (G2!>)! d) (.c .B) ._A | %27
w: Schmol- len, im- mer|Grol- len, für ein'|Ros' * wär's zu viel|
w: pout- ing, cease thy|flout- ing. hide, sweet|rose, * each cru- el|
!>(! G2-!>)! G z z2 | z2 z2 |] %29
w: Dorn! *||
w: thorn! *||
V:2
!mf! ([_A,F]>!<(![B,G] | [_A,F]!<)![C_A]!>(! [B,G][A,F]!>)! [G,E]>)([B,F] | %2
!<(! G2!<)! B2 [DB]>[C=A] |!>(! [B,DG]2-!>)! [B,DG]) z ([B,G]>[DA] |!<(! B2!<)! d2 [Fd]>[Ec] | %5
 [DFB]2- [DFB]) z"_cresc." ([DB]>[Fc] |!<(! d2!<)! f2 [Af]>[G=e] | %7
!>(! [FAd]2-!>)! [FAd]) z!p! ([Fd]>[_E=c] | [DFB]2 [CEA]2 [B,DG]>[A,D^F] | %9
!>(! [B,DG]2-!>)! [B,DG]) z!mf! ([_A,F]>!<(![B,G] | %10
 [_A,F]!<)![C_A]!>(! [B,G][A,F]!>)! [G,E]>)!<(!([B,F] | G2!<)! B2 [DB]>[C=A] | %12
!>(! (([B,G]2!>)! [CD]))) z ([B,G]>!<(![DA] | B2!<)! d2 [Fd]>[Ec] | %14
!>(! [DFB]2-!>)! [DFB]) z"_cresc." ([DB]>[Fc] |!<(! d2!<)! f2 [Af]>[G=e] | %16
!>(! ([Fd]2!>)! [GA])) z!p! ([Fd]>[_E=c] | [DFB]2 [CEA]2 [B,DG]>[A,D^F] | %18
!>(! [B,DG]2-!>)! [B,DG]) z!mf! ([_A,F]>[B,G] | %19
!<(! [_A,F][C_A]!<)!!>(![B,G][A,F]!>)! [G,E]>)([B,F] |!<(! G2!<)! B2 [DB]>[C=A] | %21
!<(! G2!<)!!>(! D2)!>)! (G>A |!<(! [DGB]2!<)! [FBd]2 [CBc]>[EAc] | %23
!>(! [DFB]2-!>)! [DFB]) z!<(!"_cresc." (.[FAd]!<)! z | %24
!>(! ([G^c=e]2!>)! [Fd])) z!<(! ([=EA^c]!<)! z |!>(! (([DAd]2!>)! [FA=c]))) z!p! ([B,FB][CEA] | %26
!>(! ([DG]2!>)! [EBd])) (.[Ac].[GB].[^FA]) |!>(! (G2!>)! !fermata!d) (c[DB][CA] | %28
 [B,G]2- [B,G]) z |] %29
V:3
 D2 | D4 x2 | [EG]4 ^F2 | x6 | [GB]4 A2 | x6 | [Bd]4 ^c2 | x4 A2 | x6 | x4 D2 | D4 x2 | [EG]4 ^F2 | %12
 x6 | [GB]4 A2 | x6 | [Bd]4 ^c2 | x4 A2 | x6 | x4 D2 | D4 x2 | [EG]4 ^F2 | B,CB,A, G,>[EG] | x6 | %23
 x6 | x6 | x6 | x4 DC | (B,2 D) z ^F2 | x4 |] %29
V:4
 B,,2 | (B,,,4 E,,2) |!ped! z2 z2 D,,2!ped-up! | G,,2- G,, z z2 |!ped! z2 z2!ped-up! F,,2 | %5
 B,,2- B,, z z2 |!ped! z2 z2!ped-up! A,,2 | D,2- D, z .F,,2 | (B,,,2 C,,2 D,,2 | %9
 G,,,2-) G,,, z B,,2 | (B,,,4 E,,2) |!ped! z2 z2 D,,2!ped-up! | G,,2- G,, z z2 | %13
!ped! z2 z2 F,,2!ped-up! | B,,2- B,, z z2 |!ped! z2 z2 A,,2!ped-up! | D,2- D, z .F,,2 | %17
 (B,,,2 C,,2 D,,2 | G,,,2-) G,,, z B,,2 | (B,,,4 E,,2) |!ped! z2 z2 .D,,2!ped-up! | %21
 (G,,A,,G,,=F,,) (E,,>C,, | G,,2 D,,>E,, F,,2 | B,,,2-) B,,, z (.[D,,D,] z | %24
 (([B,,B,]2 [A,,A,]))) z ([G,,G,] z | ((([F,,F,]2 [_E,,_E,])))) z ([D,,D,][C,,C,] | %26
 [B,,,B,,]2 [C,,C,]2) [D,,D,]2 | (([E,,E,]2!ped! !fermata![B,,,B,,])) z [D,,D,]2!ped-up! | %28
 [G,,,G,,]2- [G,,,G,,] z |] %29

